icons/evolvere-blue-folders-flat-vivid-dark-fallback/apps/64/lightworks.svg

<?xml version="1.0" encoding="UTF-8" standalone="no"?>
<!-- Created with Inkscape (http://www.inkscape.org/) -->

<svg
   xmlns:dc="http://purl.org/dc/elements/1.1/"
   xmlns:cc="http://creativecommons.org/ns#"
   xmlns:rdf="http://www.w3.org/1999/02/22-rdf-syntax-ns#"
   xmlns:svg="http://www.w3.org/2000/svg"
   xmlns="http://www.w3.org/2000/svg"
   xmlns:sodipodi="http://sodipodi.sourceforge.net/DTD/sodipodi-0.dtd"
   xmlns:inkscape="http://www.inkscape.org/namespaces/inkscape"
   width="64"
   height="64"
   id="svg13094"
   version="1.1"
   inkscape:version="0.91+devel r"
   sodipodi:docname="lightworks.svg">
  <sodipodi:namedview
     id="base"
     pagecolor="#ffffff"
     bordercolor="#666666"
     borderopacity="1.0"
     inkscape:pageopacity="0"
     inkscape:pageshadow="2"
     inkscape:zoom="11.313709"
     inkscape:cx="26.886344"
     inkscape:cy="30.907854"
     inkscape:document-units="px"
     inkscape:current-layer="svg13094"
     showgrid="true"
     inkscape:snap-bbox="true"
     inkscape:bbox-paths="true"
     inkscape:bbox-nodes="true"
     inkscape:snap-bbox-edge-midpoints="true"
     inkscape:snap-bbox-midpoints="true"
     inkscape:object-paths="true"
     inkscape:snap-intersection-paths="true"
     inkscape:object-nodes="true"
     inkscape:snap-smooth-nodes="true"
     inkscape:snap-midpoints="true"
     inkscape:snap-object-midpoints="true"
     inkscape:snap-center="true"
     showguides="true"
     inkscape:guide-bbox="true"
     inkscape:window-width="1920"
     inkscape:window-height="1023"
     inkscape:window-x="-10"
     inkscape:window-y="35"
     inkscape:window-maximized="1"
     inkscape:snap-global="true"
     fit-margin-top="0"
     fit-margin-left="0"
     fit-margin-right="0"
     fit-margin-bottom="0"
     showborder="true"
     inkscape:showpageshadow="false"
     inkscape:snap-page="true">
    <inkscape:grid
       type="xygrid"
       id="grid3075"
       empspacing="5"
       visible="true"
       enabled="true"
       snapvisiblegridlinesonly="true"
       originx="1.6362304e-08px"
       originy="18px" />
  </sodipodi:namedview>
  <defs
     id="defs13096" />
  <metadata
     id="metadata13099">
    <rdf:RDF>
      <cc:Work
         rdf:about="">
        <dc:format>image/svg+xml</dc:format>
        <dc:type
           rdf:resource="http://purl.org/dc/dcmitype/StillImage" />
        <dc:title></dc:title>
      </cc:Work>
    </rdf:RDF>
  </metadata>
  <path
     inkscape:connector-curvature="0"
     style="color:#000000;fill:#2a6687;fill-opacity:1;fill-rule:nonzero;stroke:none;stroke-width:2.28571415;marker:none;visibility:visible;display:inline;overflow:visible;enable-background:accumulate"
     d="m 0,4 0,30 0,28 2,2 30,0 30,0 2,-2 L 64,34 64,4 32,4 0,4 z"
     id="path4095" />
  <path
     inkscape:connector-curvature="0"
     style="color:#000000;fill:#57a9c7;fill-opacity:1;fill-rule:nonzero;stroke:none;stroke-width:2.28571415;marker:none;visibility:visible;display:inline;overflow:visible;enable-background:accumulate"
     d="M 2,0 0,1 0,4 32,4 64,4 64,1 62,0 32,0 2,0 z"
     id="path4090" />
  <path
     style="fill:#72b7d0;fill-opacity:1;fill-rule:nonzero"
     d="M 0,3 0,6 2,4 Z"
     id="path4298"
     inkscape:connector-curvature="0"
     sodipodi:nodetypes="cccc" />
  <path
     d="M 64,6 62,4 64,3 z"
     id="path3028"
     style="fill:#4188a7;fill-opacity:1"
     inkscape:connector-curvature="0" />
  <g
     id="g3043"
     inkscape:export-filename="folder.png"
     inkscape:export-xdpi="90"
     inkscape:export-ydpi="90"
     transform="translate(-0.62500009,0.082283)" />
  <g
     id="scalable"
     transform="matrix(1.0385892,0,0,1.0385892,1214.7222,1878.8121)"
     inkscape:label="#g3701"
     style="fill:#ffffff" />
  <path
     inkscape:connector-curvature="0"
     style="color:#000000;fill:#c1e2ef;fill-opacity:1;fill-rule:nonzero;stroke:none;stroke-width:0.54004318;marker:none;visibility:visible;display:inline;overflow:visible;enable-background:accumulate"
     d="m 22.03125,15.0625 c -4.956756,0 -8.96875,4.011994 -8.96875,8.96875 0,4.956756 4.011994,8.96875 8.96875,8.96875 l 0.03125,0 C 22.529416,28.272672 26.272672,24.529416 31,24.0625 l 0,-0.03125 C 31,19.074494 26.988006,15.0625 22.03125,15.0625 z m 19.9375,0 C 37.011995,15.0625 33,19.074494 33,24.03125 l 0,0.03125 c 4.727327,0.466916 8.470584,4.210172 8.9375,8.9375 l 0.03125,0 c 4.956756,0 8.96875,-4.011994 8.96875,-8.96875 0,-4.956756 -4.011994,-8.96875 -8.96875,-8.96875 z M 31,25.0625 C 26.83494,25.527149 23.527149,28.83494 23.0625,33 L 31,33 31,25.0625 z m 2,0 0,7.9375 7.9375,0 C 40.472851,28.83494 37.16506,25.527149 33,25.0625 z M 22.03125,35 c -4.956756,0 -8.96875,4.011994 -8.96875,8.96875 0,4.956756 4.011994,8.96875 8.96875,8.96875 C 26.988006,52.9375 31,48.925506 31,43.96875 L 31,43.9375 C 26.272672,43.470584 22.529416,39.727327 22.0625,35 l -0.03125,0 z m 1.03125,0 c 0.464649,4.16506 3.77244,7.472851 7.9375,7.9375 L 31,35 23.0625,35 z M 33,35 33,42.9375 C 37.16506,42.472851 40.472851,39.16506 40.9375,35 L 33,35 z m 8.9375,0 C 41.470584,39.727327 37.727327,43.470584 33,43.9375 l 0,0.03125 c 0,4.956756 4.011995,8.96875 8.96875,8.96875 4.956756,0 8.96875,-4.011994 8.96875,-8.96875 C 50.9375,39.011994 46.925506,35 41.96875,35 l -0.03125,0 z"
     id="path3825" />
</svg>

<svg xmlns="http://www.w3.org/2000/svg" viewBox="0 0 64 64"><g color="#000"><path d="m0 4v30 28l2 2h30 30l2-2v-28-30h-32-32" fill="#2a6687"/><path d="m2 0l-2 1v3h32 32v-3l-2-1h-30-30" fill="#57a9c7"/></g><path d="m0 3v3l2-2" fill="#72b7d0"/><path d="m64 6l-2-2 2-1z" fill="#4188a7"/><path d="m22.03 15.06c-4.957 0-8.969 4.01-8.969 8.969 0 4.957 4.01 8.969 8.969 8.969h.031c.467-4.727 4.21-8.471 8.938-8.938v-.031c0-4.957-4.01-8.969-8.969-8.969m19.938 0c-4.957 0-8.969 4.01-8.969 8.969v.031c4.727.467 8.471 4.21 8.938 8.938h.031c4.957 0 8.969-4.01 8.969-8.969 0-4.957-4.01-8.969-8.969-8.969m-10.969 10c-4.165.465-7.473 3.772-7.938 7.938h7.938v-7.938m2 0v7.938h7.938c-.465-4.165-3.772-7.473-7.938-7.938m-10.969 9.938c-4.957 0-8.969 4.01-8.969 8.969 0 4.957 4.01 8.969 8.969 8.969 4.957 0 8.969-4.01 8.969-8.969v-.031c-4.727-.467-8.471-4.21-8.938-8.938h-.031m1.031 0c.465 4.165 3.772 7.473 7.938 7.938v-7.938h-7.938m9.938 0v7.938c4.165-.465 7.473-3.772 7.938-7.938h-7.938m8.938 0c-.467 4.727-4.21 8.471-8.938 8.938v.031c0 4.957 4.01 8.969 8.969 8.969 4.957 0 8.969-4.01 8.969-8.969 0-4.957-4.01-8.969-8.969-8.969h-.031" fill="#c1e2ef" color="#000"/></svg>
